app/ui/static/images/icons/solid/hand-thumb-up.svg

<svg width="20" height="20" viewBox="0 0 20 20" fill="none" xmlns="http://www.w3.org/2000/svg">
<path d="M1 8.25C1 7.55964 1.55964 7 2.25 7C2.94036 7 3.5 7.55964 3.5 8.25V15.75C3.5 16.4404 2.94036 17 2.25 17C1.55964 17 1 16.4404 1 15.75V8.25Z" fill="#0F172A"/>
<path d="M11 3V1.70016C11 1.43243 11.1397 1.17406 11.3949 1.09316C11.5858 1.03264 11.7891 1 12 1C13.1046 1 14 1.89543 14 3C14 3.99504 13.8183 4.94764 13.4864 5.82646C13.2823 6.36683 13.6524 7 14.23 7H16.75C17.9926 7 19.0111 8.00957 18.8962 9.24689C18.7031 11.3266 18.2447 13.3294 17.555 15.2209C17.1534 16.3225 16.0723 17 14.8998 17H11.7082C11.2425 17 10.7831 16.8916 10.3666 16.6833L7.63344 15.3167C7.21687 15.1084 6.75753 15 6.2918 15H5V8H5.9632C6.64763 8 7.22105 7.51748 7.57541 6.93193C8.06387 6.1248 8.82963 5.50423 9.74061 5.20229C10.1734 5.05884 10.5942 4.81595 10.7525 4.38836C10.9126 3.95587 11 3.48815 11 3Z" fill="#0F172A"/>
</svg>

<svg xmlns="http://www.w3.org/2000/svg" viewBox="0 0 20 20" fill="currentColor" aria-hidden="true">
  <path d="M1 8.25a1.25 1.25 0 112.5 0v7.5a1.25 1.25 0 11-2.5 0v-7.5zM11 3V1.7c0-.268.14-.526.395-.607A2 2 0 0114 3c0 .995-.182 1.948-.514 2.826-.204.54.166 1.174.744 1.174h2.52c1.243 0 2.261 1.01 2.146 2.247a23.864 23.864 0 01-1.341 5.974C17.153 16.323 16.072 17 14.9 17h-3.192a3 3 0 01-1.341-.317l-2.734-1.366A3 3 0 006.292 15H5V8h.963c.685 0 1.258-.483 1.612-1.068a4.011 4.011 0 012.166-1.73c.432-.143.853-.386 1.011-.814.16-.432.248-.9.248-1.388z"/>
</svg>
